public/avatar/hat/238.svg

<svg xmlns:xlink="http://www.w3.org/1999/xlink" height="92.9" width="100.7" xmlns="http://www.w3.org/2000/svg"><use height="35.8" transform="translate(13.9 37)" width="45.25" xlink:href="#a"/><defs><use height="32.85" width="45.25" xlink:href="#b" id="f"/><use height="33.25" width="42.1" xlink:href="#c" id="g"/><use height="27.7" width="39.4" xlink:href="#d" id="h"/><use height="17.6" width="34.75" xlink:href="#e" id="i"/><path d="M-9.95 7.65q-.2 0-.2-.6 0-1.85.85-2.55l1.3.55q1.7.7 1.7.9l-.15.5-.6 2.35-.8-.25-1.6-.6-.65-.3h.15M-10.8 4l.35.2.5.2q-.25.1-.5 1.15l-.2 1.6-.65-.25-.5-.3.3-1.25L-11 4h.2m-2.8 1.35.2-.8.35-.85 1.55.2-.35.5-.3.75-.25.65-1.2-.45m27.5-3.5q.45.35.45 1.6l-.05.7q0 .35-.35.4h-.7l-.65.1-.6-2.1.9-.4 1-.3m1.7.7-.25-.7 1.6-.5q.55 1.3.45 2.15l-.4-.05h-.5l-.8.2V3.3l-.1-.75M7.45-7.6H7.3l.65-.85.35-.35.6.15-.1.8-.15.35-.1.35-.35-.05-.75-.4m3.85 1.95.8-.4.2.15-.45.3-.35.4-.25-.4h.05v-.05M3.65-8.6l.6-.05-.1.85-.1.45q-.1-.05-.25-.15l-.4-.1.2-.45-.05-.55h.1m-20.9 14.25.8.05q.3.75.25 1.2l-.5-.2-.65-.15.05-.4.05-.5m3.1-5.95-.1.55-.2.55-.65-.2-.5-.25.1-.05.15-.65 1.2.05M1.5-1.85v.3l.15.35.2.65-1.4.15-1-.1.05-.3.1-.35.4-.7L.15-2l.1-.15.15.1.9.2h.2m3.4-.2.2.2.3.5.1.25-.8.35-.15-.2-.1-.2-.05-.25-.2-.4h.05l.35-.1.3-.15m2.05.9-.2-.05L6-2.05h.05l.45-.3 1.25 1-.25.1-.55.1M9.6-4.1l.8.45.3.3.3.3-.35.15-.35.3-.3.15-.25.15-.2-.25-.75-.85h.1v-.05l.45-.35.25-.3m-11.5 1 .35.3.35.2-.55.45-.3.3-.2.3-.25-.2-.35-.2-.3-.25-.05-.1.1-.1.9-.55.25-.15h.05m-3.8-1 1.5-.75.45-.1v.05l.05.1.15.2.3.2-.4.2-.85.6-.45.4-.4.3-.2-.2-.15-.25-.2-.4-.05-.25.25-.1" transform="translate(17.35 8.8)" id="e" fill="#ef4b4b" fill-rule="evenodd"/><path d="m8.6-14.7 1.55 2.35q.55 1.45.8 3.6v1.45l-.35 1.1.85-.4 1.7-1.15L14.4-9l.35-.85q.3.35.45 1.8.15 1.25-.05 2.3-.3 1.1-1.1 1.9l-.35.45.7.35q1.05.8 2.25 3.1l1.1 1.75 1 1.1 2.05-.15q1.55-.3 1.8-.75-1.25 5.5-3.7 7.7l-.5 1.25q-.15 1.3-1.7 3.7-.2.3-.75-1.9-.55-2.15-.55-3-.05-2.2-1.3-4.75-1.35-2.6-4.15-5.25-2.3-2.2-5.75-2.3H2.05L-.4-2.1q-2.4.55-4.75 2.05-3.65 2.25-5.45 5.8l-.5 1.75-.15 1.3q0 .7-.25 1l-2.25 6.6-.65-1.2-.7-1.65-.6-1.75-.5-1.4q-.05-.2-.35-.3l-1.15-.5-1.85-1.15-2-2.05-1.1-1.55.95.15 1.4.3 2.7.1 2.2-.55q1-.35.8-1.25l-1.75-.9-1.7-1.5-1.6-2.45q-.5-1.05-.5-2.55l1 .85q.55.5 1.3.9l2.05.8 1.6.3.6.15q.4.05.65-.25L-11.4-3q2.65-2.55 4.35-3.2l2.3-.7.85-.15.75-.05 3.5.75q.8.35 1.15-.25L2.05-8q.2-.85-.15-1.85L.95-12q-.15-.15-.15-.25l.95.15 1.2.05 1.85.65q.9.75 1.1 1.65l.1 1.9.7-1.4q.4-.8.4-1.9l.2-2.8q.1-2-.45-2.5L8.6-14.7" fill="#4a0000" fill-rule="evenodd" transform="translate(22.65 16.45)" id="b"/><path d="M9.55-7.55q.15.65 1 .3l2.1-1.4Q13.7-9.6 13.7-9.9q.8 1.65-1.4 3.9l2.2 2.6Q16.75-.55 17.05.5q1.95 2.15 4-.05-.85 4.05-3.45 5.6-2 6.3-3.35 7.15.85-3.9.45-4.25l-2.45 5.7q1.6-9.9-2.65-15.2L8.35.2Q6.6-2.5 6.2-2.4v1.9l-1.45.1Q3.6-2.8 3.1-2.7 2.4-1.15 2-1l-3 .5q-1.8 1.25-3.45 4-3.25 5.55-2.4 13.15-3.4-5.35-3.3-9.25l-.4 4.8-2.15-4.9-1.6 4.55-.35-4.75-1.25-.15q-2.05-.55-5.15-3.65 5.95.8 6.65-1.2l.35-1.95q-3.85-.2-5.15-4.85 1.15 2.9 6.35 2.2.75-1.5 2.5-2.95 3.55-2.9 8.5-2.8l1.55.65q3.1.05 2.95-5.85 2.75.7 2.25 5.4 4.4-2.3 2.95-8.55 2.55 3.2 1.7 8.3v.75" fill="#a80505" fill-rule="evenodd" transform="translate(21.05 16.6)" id="c"/><g id="a" transform="translate(22.65 17.9)"><use height="32.85" transform="translate(-22.65 -17.9)" width="45.25" xlink:href="#f"/><use height="33.25" transform="translate(-20.6 -15.35)" width="42.1" xlink:href="#g"/><use height="27.7" transform="translate(-18.9 -12.4)" width="39.4" xlink:href="#h"/><use height="17.6" transform="translate(-17.1 -9)" width="34.75" xlink:href="#i"/></g><g id="d" fill="#ce2020" fill-rule="evenodd"><path d="M-7.1-3.6q-6.3 5.45-7.7 13.3-.5-3.3 1-7.25 3.05-7.95 12.75-9.9Q-3.9-6.3-7.1-3.6M16.5-.1q2.65 6.2-2.3 12.85.9-1.95 1.2-5.05.65-6.25-2.25-12.15-.35-.65 1.15.9 1.4 1.5 2.2 3.45" transform="translate(19.7 13.85)"/><path d="M-1.45-4.6-3.1-2.85-4.65-.5l-1.3 2.3Q-6.8 3.55-7.3 5.55l-.45 3.4-.15 2.7-.05 1.7v.5l-.05-.1v-.05l-.7-.95-.95-1.85-.7-2.4-.15-.55q-.7-5 2.75-8.7L-5.8-2.5l1.85-1.35.9-.6 1.95-.9.7-.2-1.05.95m-16.7 9.4-1.55-.95 1.9.2 1.15-.05.55-.1.4-.15v.4l-.1.35v.75l-1.2-.1-1.15-.35m.65-7 1.5.2 1.25.05 1.05-.15-.4.6-.25.65-1.2-.3-.65-.3-1.3-.75-.6-.2.3-.05.3.25m20.8-9.05.25 1.1.05 1.2-.3 1-.8-.25-.6-.1.95-.95.4-1.05-.1-.75-.15-.5-.2-.45.5.75m5.1-1.7.05 2.5L8.2-9.1l-.25 1-.15.4-.4-.1-1.05-.3-.8-.15.05-.1.5-.3.6-.45q.4-.3 1.05-1.5.3-.55.4-1.8v-1.45l.25.9m2.4 6.5q-.55-.5-.9-.45l.25-.1 1.4-.7.9-.65-.55.75-1.1 1.15" transform="translate(19.7 13.85)"/><path d="M-11.35 9.65q-2.8-4.95 2.4-10.95l-1.6 3.95q-1.4 4.45-.7 6.95l-.1.05M10.7-4.5q4.7 4.55 2.45 14.7-.2-3.55-1.15-7.45Q10.05-5 6.3-6.65q-2.1-.9 1.15.15 1.8.6 3.25 2m6.85 5.95q.65 1.4 2.15.4L17.95 4.2q.1-.5-.4-2.75M.25-4.25l1.2-.9q-.65.9-.4 2.3l.3 1.3-2.6.2q.2-1.7 1.5-2.9m2.8-.55v-.05q2.2 1.35 2.4 3.8l-.8-.1q0-.75-1.6-3.65" transform="translate(19.7 13.85)"/><path d="M4.65-4.85q1.65.85 4.6 3.7L8.1-.5q-.05-.6-3.45-4.35" transform="translate(19.7 13.85)"/></g></defs></svg>

<?xml version="1.0" encoding="UTF-8" standalone="no"?>
<svg xmlns:xlink="http://www.w3.org/1999/xlink" height="92.9px" width="100.7px" xmlns="http://www.w3.org/2000/svg">
  <g transform="matrix(1.0, 0.0, 0.0, 1.0, 38.65, 49.75)">
    <use height="35.8" transform="matrix(1.0, 0.0, 0.0, 1.0, -24.75, -12.75)" width="45.25" xlink:href="#sprite0"/>
  </g>
  <defs>
    <g id="sprite0" transform="matrix(1.0, 0.0, 0.0, 1.0, 22.65, 17.9)">
      <use height="32.85" transform="matrix(1.0, 0.0, 0.0, 1.0, -22.65, -17.9)" width="45.25" xlink:href="#sprite1"/>
      <use height="33.25" transform="matrix(1.0, 0.0, 0.0, 1.0, -20.6, -15.35)" width="42.1" xlink:href="#sprite2"/>
      <use height="27.7" transform="matrix(1.0, 0.0, 0.0, 1.0, -18.9, -12.4)" width="39.4" xlink:href="#sprite3"/>
      <use height="17.6" transform="matrix(1.0, 0.0, 0.0, 1.0, -17.1, -9.0)" width="34.75" xlink:href="#sprite4"/>
    </g>
    <g id="sprite1" transform="matrix(1.0, 0.0, 0.0, 1.0, 22.65, 16.45)">
      <use height="32.85" transform="matrix(1.0, 0.0, 0.0, 1.0, -22.65, -16.45)" width="45.25" xlink:href="#shape0"/>
    </g>
    <g id="shape0" transform="matrix(1.0, 0.0, 0.0, 1.0, 22.65, 16.45)">
      <path d="M8.6 -14.7 L10.15 -12.35 Q10.7 -10.9 10.95 -8.75 L10.95 -7.3 10.6 -6.2 11.45 -6.6 13.15 -7.75 14.4 -9.0 14.75 -9.85 Q15.05 -9.5 15.2 -8.05 15.35 -6.8 15.15 -5.75 14.85 -4.65 14.05 -3.85 L13.7 -3.4 14.4 -3.05 Q15.45 -2.25 16.65 0.05 L17.75 1.8 18.75 2.9 20.8 2.75 Q22.35 2.45 22.6 2.0 21.35 7.5 18.9 9.7 L18.4 10.95 Q18.25 12.25 16.7 14.65 16.5 14.95 15.95 12.75 15.4 10.6 15.4 9.75 15.35 7.55 14.1 5.0 12.75 2.4 9.95 -0.25 7.65 -2.45 4.2 -2.55 L2.05 -2.55 -0.4 -2.1 Q-2.8 -1.55 -5.15 -0.05 -8.8 2.2 -10.6 5.75 L-11.1 7.5 -11.25 8.8 Q-11.25 9.5 -11.5 9.8 L-13.75 16.4 -14.4 15.2 -15.1 13.55 -15.7 11.8 -16.2 10.4 Q-16.25 10.2 -16.55 10.1 L-17.7 9.6 -19.55 8.45 -21.55 6.4 -22.65 4.85 -21.7 5.0 -20.3 5.3 -17.6 5.4 -15.4 4.85 Q-14.4 4.5 -14.6 3.6 L-16.35 2.7 -18.05 1.2 -19.65 -1.25 Q-20.15 -2.3 -20.15 -3.8 L-19.15 -2.95 Q-18.6 -2.45 -17.85 -2.05 L-15.8 -1.25 -14.2 -0.95 -13.6 -0.8 Q-13.2 -0.75 -12.95 -1.05 L-11.4 -3.0 Q-8.75 -5.55 -7.05 -6.2 L-4.75 -6.9 -3.9 -7.05 -3.15 -7.1 0.35 -6.35 Q1.15 -6.0 1.5 -6.6 L2.05 -8.0 Q2.25 -8.85 1.9 -9.85 L0.95 -12.0 Q0.8 -12.15 0.8 -12.25 L1.75 -12.1 2.95 -12.05 4.8 -11.4 Q5.7 -10.65 5.9 -9.75 L6.0 -7.85 6.7 -9.25 Q7.1 -10.05 7.1 -11.15 L7.3 -13.95 Q7.4 -15.95 6.85 -16.45 L8.6 -14.7" fill="#4a0000" fill-rule="evenodd" stroke="none"/>
    </g>
    <g id="sprite2" transform="matrix(1.0, 0.0, 0.0, 1.0, 21.05, 16.6)">
      <use height="33.25" transform="matrix(1.0, 0.0, 0.0, 1.0, -21.05, -16.6)" width="42.1" xlink:href="#shape1"/>
    </g>
    <g id="shape1" transform="matrix(1.0, 0.0, 0.0, 1.0, 21.05, 16.6)">
      <path d="M9.55 -7.55 Q9.7 -6.9 10.55 -7.25 L12.65 -8.65 Q13.7 -9.6 13.7 -9.9 14.5 -8.25 12.3 -6.0 L14.5 -3.4 Q16.75 -0.55 17.05 0.5 19.0 2.65 21.05 0.45 20.2 4.5 17.6 6.05 15.6 12.35 14.25 13.2 15.1 9.3 14.7 8.95 L12.25 14.65 Q13.85 4.75 9.6 -0.55 L8.35 0.2 Q6.6 -2.5 6.2 -2.4 L6.2 -0.5 4.75 -0.4 Q3.6 -2.8 3.1 -2.7 2.4 -1.15 2.0 -1.0 L-1.0 -0.5 Q-2.8 0.75 -4.45 3.5 -7.7 9.05 -6.85 16.65 -10.25 11.3 -10.15 7.4 L-10.55 12.2 -12.7 7.3 -14.3 11.85 -14.65 7.1 -15.9 6.95 Q-17.95 6.4 -21.05 3.3 -15.1 4.1 -14.4 2.1 L-14.05 0.15 Q-17.9 -0.05 -19.2 -4.7 -18.05 -1.8 -12.85 -2.5 -12.1 -4.0 -10.35 -5.45 -6.8 -8.35 -1.85 -8.25 L-0.3 -7.6 Q2.8 -7.55 2.65 -13.45 5.4 -12.75 4.9 -8.05 9.3 -10.35 7.85 -16.6 10.4 -13.4 9.55 -8.3 L9.55 -7.55" fill="#a80505" fill-rule="evenodd" stroke="none"/>
    </g>
    <g id="sprite3" transform="matrix(1.0, 0.0, 0.0, 1.0, 19.7, 13.85)">
      <use height="27.7" transform="matrix(1.0, 0.0, 0.0, 1.0, -19.7, -13.85)" width="39.4" xlink:href="#shape2"/>
    </g>
    <g id="shape2" transform="matrix(1.0, 0.0, 0.0, 1.0, 19.7, 13.85)">
      <path d="M-7.1 -3.6 Q-13.4 1.85 -14.8 9.7 -15.3 6.4 -13.8 2.45 -10.75 -5.5 -1.05 -7.45 -3.9 -6.3 -7.1 -3.6" fill="#ce2020" fill-rule="evenodd" stroke="none"/>
      <path d="M16.5 -0.1 Q19.15 6.1 14.2 12.75 15.1 10.8 15.4 7.7 16.05 1.45 13.15 -4.45 12.8 -5.1 14.3 -3.55 15.7 -2.05 16.5 -0.1" fill="#ce2020" fill-rule="evenodd" stroke="none"/>
      <path d="M-1.45 -4.6 L-3.1 -2.85 -4.65 -0.5 -5.95 1.8 Q-6.8 3.55 -7.3 5.55 L-7.75 8.95 -7.9 11.65 -7.95 13.35 -7.95 13.85 -8.0 13.75 -8.0 13.7 -8.7 12.75 -9.65 10.9 -10.35 8.5 -10.5 7.95 Q-11.2 2.95 -7.75 -0.75 L-5.8 -2.5 -3.95 -3.85 -3.05 -4.45 -1.1 -5.35 -0.4 -5.55 -1.45 -4.6" fill="#ce2020" fill-rule="evenodd" stroke="none"/>
      <path d="M-18.15 4.8 L-19.7 3.85 -17.8 4.05 -16.65 4.0 -16.1 3.9 -15.7 3.75 -15.7 4.15 -15.8 4.5 -15.8 5.25 -17.0 5.15 -18.15 4.8" fill="#ce2020" fill-rule="evenodd" stroke="none"/>
      <path d="M-17.5 -2.2 L-16.0 -2.0 -14.75 -1.95 -13.7 -2.1 -14.1 -1.5 -14.35 -0.85 -15.55 -1.15 -16.2 -1.45 -17.5 -2.2 -18.1 -2.4 -17.8 -2.45 -17.5 -2.2" fill="#ce2020" fill-rule="evenodd" stroke="none"/>
      <path d="M3.3 -11.25 L3.55 -10.15 3.6 -8.95 3.3 -7.95 2.5 -8.2 1.9 -8.3 2.85 -9.25 3.25 -10.3 3.15 -11.05 3.0 -11.55 2.8 -12.0 3.3 -11.25" fill="#ce2020" fill-rule="evenodd" stroke="none"/>
      <path d="M8.4 -12.95 L8.45 -10.45 8.2 -9.1 7.95 -8.1 7.8 -7.7 7.4 -7.8 6.35 -8.1 5.55 -8.25 5.6 -8.35 6.1 -8.65 6.7 -9.1 Q7.1 -9.4 7.75 -10.6 8.05 -11.15 8.15 -12.4 L8.15 -13.85 8.4 -12.95" fill="#ce2020" fill-rule="evenodd" stroke="none"/>
      <path d="M10.8 -6.45 Q10.25 -6.95 9.9 -6.9 L10.15 -7.0 11.55 -7.7 12.45 -8.35 11.9 -7.6 10.8 -6.45" fill="#ce2020" fill-rule="evenodd" stroke="none"/>
      <path d="M-11.35 9.65 Q-14.15 4.7 -8.95 -1.3 L-10.55 2.65 Q-11.95 7.1 -11.25 9.6 L-11.35 9.65" fill="#ce2020" fill-rule="evenodd" stroke="none"/>
      <path d="M10.7 -4.5 Q15.4 0.05 13.15 10.2 12.95 6.65 12.0 2.75 10.05 -5.0 6.3 -6.65 4.2 -7.55 7.45 -6.5 9.25 -5.9 10.7 -4.5" fill="#ce2020" fill-rule="evenodd" stroke="none"/>
      <path d="M17.55 1.45 Q18.2 2.85 19.7 1.85 L17.95 4.2 Q18.05 3.7 17.55 1.45" fill="#ce2020" fill-rule="evenodd" stroke="none"/>
      <path d="M0.25 -4.25 L1.45 -5.15 Q0.8 -4.25 1.05 -2.85 L1.35 -1.55 -1.25 -1.35 Q-1.05 -3.05 0.25 -4.25" fill="#ce2020" fill-rule="evenodd" stroke="none"/>
      <path d="M3.05 -4.8 L3.05 -4.85 Q5.25 -3.5 5.45 -1.05 L4.65 -1.15 Q4.65 -1.9 3.05 -4.8" fill="#ce2020" fill-rule="evenodd" stroke="none"/>
      <path d="M4.65 -4.85 Q6.3 -4.0 9.25 -1.15 L8.1 -0.5 Q8.05 -1.1 4.65 -4.85" fill="#ce2020" fill-rule="evenodd" stroke="none"/>
    </g>
    <g id="sprite4" transform="matrix(1.0, 0.0, 0.0, 1.0, 17.35, 8.8)">
      <use height="17.6" transform="matrix(1.0, 0.0, 0.0, 1.0, -17.35, -8.8)" width="34.75" xlink:href="#shape3"/>
    </g>
    <g id="shape3" transform="matrix(1.0, 0.0, 0.0, 1.0, 17.35, 8.8)">
      <path d="M-9.95 7.65 Q-10.15 7.65 -10.15 7.05 -10.15 5.2 -9.3 4.5 L-8.0 5.05 Q-6.3 5.75 -6.3 5.95 L-6.45 6.45 -7.05 8.8 -7.85 8.55 -9.45 7.95 -10.1 7.65 -9.95 7.65" fill="#ef4b4b" fill-rule="evenodd" stroke="none"/>
      <path d="M-10.8 4.0 L-10.45 4.2 -9.95 4.4 Q-10.2 4.5 -10.45 5.55 L-10.65 7.15 -11.3 6.9 -11.8 6.6 -11.5 5.35 -11.0 4.0 -10.8 4.0" fill="#ef4b4b" fill-rule="evenodd" stroke="none"/>
      <path d="M-13.6 5.35 L-13.4 4.55 -13.05 3.7 -11.5 3.9 -11.85 4.4 -12.15 5.15 -12.4 5.8 -13.6 5.35" fill="#ef4b4b" fill-rule="evenodd" stroke="none"/>
      <path d="M13.9 1.85 Q14.35 2.2 14.35 3.45 L14.3 4.15 Q14.3 4.5 13.95 4.55 L13.25 4.55 12.6 4.65 12.0 2.55 12.9 2.15 13.9 1.85" fill="#ef4b4b" fill-rule="evenodd" stroke="none"/>
      <path d="M15.6 2.55 L15.35 1.85 16.95 1.35 Q17.5 2.65 17.4 3.5 L17.0 3.45 16.5 3.45 15.7 3.65 15.7 3.3 15.6 2.55" fill="#ef4b4b" fill-rule="evenodd" stroke="none"/>
      <path d="M7.45 -7.6 L7.3 -7.6 7.95 -8.45 8.3 -8.8 8.9 -8.65 8.8 -7.85 8.65 -7.5 8.55 -7.15 8.2 -7.2 7.45 -7.6" fill="#ef4b4b" fill-rule="evenodd" stroke="none"/>
      <path d="M11.3 -5.65 L12.1 -6.05 12.3 -5.9 11.85 -5.6 11.5 -5.2 11.25 -5.6 11.3 -5.6 11.3 -5.65" fill="#ef4b4b" fill-rule="evenodd" stroke="none"/>
      <path d="M3.65 -8.6 L4.25 -8.65 4.15 -7.8 4.05 -7.35 Q3.95 -7.4 3.8 -7.5 L3.4 -7.6 3.6 -8.05 3.55 -8.6 3.65 -8.6" fill="#ef4b4b" fill-rule="evenodd" stroke="none"/>
      <path d="M-17.25 5.65 L-16.45 5.7 Q-16.15 6.45 -16.2 6.9 L-16.7 6.7 -17.35 6.55 -17.3 6.15 -17.25 5.65" fill="#ef4b4b" fill-rule="evenodd" stroke="none"/>
      <path d="M-14.15 -0.3 L-14.25 0.25 -14.45 0.8 -15.1 0.6 -15.6 0.35 -15.5 0.3 -15.35 -0.35 -14.15 -0.3" fill="#ef4b4b" fill-rule="evenodd" stroke="none"/>
      <path d="M1.5 -1.85 L1.5 -1.55 1.65 -1.2 1.85 -0.55 0.45 -0.4 -0.55 -0.5 -0.5 -0.8 -0.4 -1.15 0.0 -1.85 0.15 -2.0 0.25 -2.15 0.4 -2.05 1.3 -1.85 1.5 -1.85" fill="#ef4b4b" fill-rule="evenodd" stroke="none"/>
      <path d="M4.9 -2.05 L5.1 -1.85 5.4 -1.35 5.5 -1.1 4.7 -0.75 4.55 -0.95 4.45 -1.15 4.4 -1.4 4.2 -1.8 4.25 -1.8 4.6 -1.9 4.9 -2.05" fill="#ef4b4b" fill-rule="evenodd" stroke="none"/>
      <path d="M6.95 -1.15 L6.75 -1.2 6.0 -2.05 6.05 -2.05 6.5 -2.35 7.75 -1.35 7.5 -1.25 6.95 -1.15" fill="#ef4b4b" fill-rule="evenodd" stroke="none"/>
      <path d="M9.6 -4.1 L10.4 -3.65 10.7 -3.35 11.0 -3.05 10.65 -2.9 10.3 -2.6 10.0 -2.45 9.75 -2.3 9.55 -2.55 8.8 -3.4 8.9 -3.4 8.9 -3.45 9.35 -3.8 9.6 -4.1" fill="#ef4b4b" fill-rule="evenodd" stroke="none"/>
      <path d="M-1.9 -3.1 L-1.55 -2.8 -1.2 -2.6 -1.75 -2.15 -2.05 -1.85 -2.25 -1.55 -2.5 -1.75 -2.85 -1.95 -3.15 -2.2 -3.2 -2.3 -3.1 -2.4 -2.2 -2.95 -1.95 -3.1 -1.9 -3.1" fill="#ef4b4b" fill-rule="evenodd" stroke="none"/>
      <path d="M-5.7 -4.1 L-4.2 -4.85 -3.75 -4.95 -3.75 -4.9 -3.7 -4.8 -3.55 -4.6 -3.25 -4.4 -3.65 -4.2 -4.5 -3.6 -4.95 -3.2 -5.35 -2.9 -5.55 -3.1 -5.7 -3.35 -5.9 -3.75 -5.95 -4.0 -5.7 -4.1" fill="#ef4b4b" fill-rule="evenodd" stroke="none"/>
    </g>
  </defs>
</svg>
